X:1
T:Here Again
T:Here Again
T:Alonzo Judson Abbey
T:A. B. Emmons, 1879
T:Public Domain Courtesy of the Cyber Hymnal™
T:Public Domain Courtesy of the Cyber Hymnal™
C:Alonzo Judson Abbey
Z:Public Domain
Z:Courtesy of the Cyber Hymnal™
%%score ( 1 2 ) ( 3 4 )
L:1/8
Q:1/4=80
M:2/4
K:Eb
V:1 treble 
V:2 treble 
V:3 bass 
V:4 bass 
V:1
 B | [Ge][Ge] [Fd][AB] | [Ge][Ge] [Fd][DB] | [FA][EG] [DF][FA] | [EG][GB] !fermata![GB]E | %5
w: 1.~With|joy to- night a-|gain we meet, With|song the Christ- mas|time to greet; Our|
w: 2.~In|Beth- le- hem the|Lord was born; His|com- ing brought the|glor- ious morn; We|
w: 3.~We|praise the name of|God a- bove, We|thank Him for His|bound- less love; Oh!|
 GB [Ge][GB] | [Ac][Af] [Af][Fe] | [Fd][=E^c] [Fd][DB] | [Ec][Fd] !fermata![Ge] ||"^Refrain" [GB] | %10
w: hearts and voic- es|now we raise, To|give to Christ, our|Sav- ior, praise.|We’ll|
w: bring to Him our|gift of song, And|would the notes of|joy pro- long.||
w: why should we not|hap- py be, Since|Christ from sin hath|set us free?||
 [Fe][Fe] [Fd][DB] | [Ec][Ec] [DB][EB] | [Ec][Ad] [Ge][Ge] | [Fd][Ge] !fermata![Af][Ad] | %14
w: sing to- night and|hap- py be, And|shout a- loud o’er|earth and sea, The|
w: ||||
w: ||||
 [Ge][GB] [GB][Ge] | [Ad][Ac] [Ac]2 | [FB][FB]/[FB]/ [GB][Ge] | [Ae][Ad] [Ge]2 | EE GG | B2 B z | %20
w: Christ- mas time is|here a- gain;|Glo- ry to God, good|will to men!|Glo- ry! Glo- ry!|Glo- ry!|
w: ||||||
w: ||||||
 [Ge][Ge]/[Ge]/ [Ge][Gd] | [Ac][A=B] [Ac]2 | [=Af][Af]/[Af]/ [Af][Ae] | [Bd][B^c] [Bd][AB] | %24
w: Glo- ry to God! let|voic- es sing,|Glo- ry to God! let|sweet bells ring; The|
w: ||||
w: ||||
 [Ge][GB] [GB][Ge] | [Ad][Ac] [Ac]2 | [FB][FB]/[FB]/ [FB][Ge] | [Ae][Ad] !fermata![Ge] ||O z | %29
w: Christ- mas time is|here a- gain;|Glo- ry to God! good|will to men.||
w: |||||
w: |||||
"^After last verse" e2 [Ge] z | e2 [Ge] z | [Ge][Ge]/[Ge]/ [Ge][Ge] | [Bg]2 [Af]2 | %33
w: Glo- ry!|glo- ry!|Glo- ry to God! good|will to|
w: ||||
w: ||||
 !fermata![Ge]3 |] %34
w: men.|
w: |
w: |
V:2
 B | x4 | x4 | x4 | x3 E | GB x2 | x4 | x4 | x3 || x | x4 | x4 | x4 | x4 | x4 | x4 | x4 | x4 | %18
 EE GG | B2 B x | x4 | x4 | x4 | x4 | x4 | x4 | x4 | x3 || x | (AA/A/) x2 | (AA/A/) x2 | x4 | x4 | %33
 x3 |] %34
V:3
 B, | [E,B,][G,B,] B,[B,,B,] | [E,B,][G,B,] B,B, | B,B, B,[B,,B,] | [E,B,][E,E] !fermata![E,E]E, | %5
w: ~|~ ~ ~ ~|~ ~ ~ ~|~ ~ ~ ~|~ ~ ~ ~|
 G,B, [G,E][E,E] | [A,E][A,C] [A,C][=A,C] | B,B, B,B, | [B,,B,][B,,B,] !fermata![E,B,] || [E,B,] | %10
w: ~ ~ ~ ~|~ ~ ~ ~|~ ~ ~ ~|~ ~ ~|We’ll|
 [F,=A,][F,A,] B,B, | [F,=A,][F,A,] B,[G,B,] | A,[F,B,] [E,B,][E,B,] | %13
w: sing, we’ll sing and|hap- py be, ~|~ ~ ~ ~|
 B,[B,E] !fermata![B,D][B,,B,] | [E,B,][E,E] [E,E][E,E] | [A,E][A,E] [A,E]2 | %16
w: ~ ~ ~ ~|~ ~ ~ ~|~ ~ ~|
 [B,D][B,D]/[B,D]/ [E,E][E,B,] | [B,,B,][B,,B,] [E,B,]2 | E,E, G,G, | B,2 B, z |"^Soli" E,2 E,2 | %21
w: ~ ~ ~ ~ ~|~ ~ ~|~ ~ ~ ~|~ ~|Glo- ry,|
"^Chorus" [A,E][A,E]/[A,E]/ [A,E]2 |"^Soli" F,2 F,2 | [B,F][B,F]/[B,F]/ [B,F][B,D] | %24
w: glo- ry to God!|Glo- ry,|glo- ry to God! ~|
 [E,B,][E,E] [E,E][E,E] | [A,E][A,E] [A,E]2 | [B,D][B,D]/[B,D]/ [E,E][E,B,] | %27
w: ~ ~ ~ ~|~ ~ ~|~ ~ ~ ~ ~|
 [B,,B,][B,,B,] !fermata![E,B,] || z | [A,C][A,C]/[A,C]/ [E,B,] z | [A,C][A,C]/[A,C]/ [E,B,] z | %31
w: ~ ~ ~||Glo- ry to God!|glo- ry to God!|
 [CE][CE]/[CE]/ [CE][CE] | [B,E]2 [B,,D]2 | !fermata![E,E]3 |] %34
w: |||
V:4
 B, | x2 B, x | x2 B,B, | B,B, B, x | x3 E, | G,B, x2 | x4 | B,B, B,B, | x3 || x | x2 B,B, | %11
 x2 B, x | A, x3 | B, x3 | x4 | x4 | x4 | x4 | E,E, G,G, | B,2 B, x | x4 | x4 | x4 | x4 | x4 | x4 | %26
 x4 | x3 || x | x4 | x4 | x4 | x4 | x3 |] %34

